src/svg/ticket-alt.svg

<svg height="1000" width="1125.0" xmlns="http://www.w3.org/2000/svg">
    <path d="m250 312.5h625v375h-625v-375z m781.3 187.5c0 51.8 41.9 93.8 93.7 93.8v187.5c0 51.7-42 93.7-93.7 93.7h-937.5c-51.8 0-93.8-42-93.8-93.7v-187.5c51.8 0 93.8-42 93.8-93.8s-42-93.7-93.8-93.7v-187.5c0-51.8 42-93.8 93.8-93.8h937.5c51.7 0 93.7 42 93.7 93.8v187.5c-51.8 0-93.7 41.9-93.7 93.7z m-93.8-203.1c0-25.9-21-46.9-46.9-46.9h-656.2c-25.9 0-46.9 21-46.9 46.9v406.2c0 25.9 21 46.9 46.9 46.9h656.2c25.9 0 46.9-21 46.9-46.9v-406.2z" />
  </svg>

<svg height="1000" width="1125" xmlns="http://www.w3.org/2000/svg"><path d="M250 312.5h625v375H250v-375zM1031.3 500c0 51.8 41.9 93.8 93.7 93.8v187.5c0 51.7 -42 93.7 -93.7 93.7H93.8C42 875 0 833 0 781.3V593.8c51.8 0 93.8 -42 93.8 -93.8S51.8 406.3 0 406.3V218.8C0 167 42 125 93.8 125h937.5c51.7 0 93.7 42 93.7 93.8v187.5c-51.8 0 -93.7 41.9 -93.7 93.7zM937.5 296.9c0 -25.9 -21 -46.9 -46.9 -46.9H234.4c-25.9 0 -46.9 21 -46.9 46.9v406.2c0 25.9 21 46.9 46.9 46.9h656.2c25.9 0 46.9 -21 46.9 -46.9V296.9z"/></svg>
